modules/framework7-icons/icons/camera.svg

<?xml version="1.0" encoding="UTF-8"?>
<svg width="50px" height="50px" viewBox="0 0 50 50" version="1.1" xmlns="http://www.w3.org/2000/svg" xmlns:xlink="http://www.w3.org/1999/xlink">
    <!-- Generator: Sketch 40.1 (33804) - http://www.bohemiancoding.com/sketch -->
    <title>camera</title>
    <desc>Created with Sketch.</desc>
    <defs></defs>
    <g id="Page-1" stroke="none" stroke-width="1" fill="none" fill-rule="evenodd">
        <g id="camera" transform="translate(-3.000000, 3.000000)" fill="#000000">
            <path d="M2,36.9946773 C2,39.2150556 3.78378639,41 5.99298096,41 L50.007019,41 C52.2119736,41 54,39.208081 54,36.9946773 L54,13.0053227 C54,10.7849507 52.2161823,9 50.0069348,9 L42.9918842,9 C41.2467329,9 39.2283118,7.96056661 38.2128651,6.53894123 L35.532201,2.78601154 C35.2653627,2.41243792 34.4633089,2 34.0059397,2 L21.9940603,2 C21.5398049,2 20.7324877,2.41544727 20.467799,2.78601154 L17.7871349,6.53894123 C16.7693046,7.96390366 14.7558349,9 13.0081158,9 L5.99306515,9 C3.78777529,9 2,10.7917389 2,13.0053227 L2,36.9946773 Z M5.99306515,7 L13.0081158,7 C14.1082031,7 15.5162555,6.2772423 16.159668,5.37646484 L18.840332,1.62353516 C19.480799,0.726881449 20.8945138,0 21.9940603,0 L34.0059397,0 C35.1072288,0 36.5162555,0.722757697 37.159668,1.62353516 L39.840332,5.37646484 C40.480799,6.27311855 41.8933973,7 42.9918842,7 L50.0069348,7 C53.3168133,7 56,9.67643992 56,13.0053227 L56,36.9946773 C56,40.3113255 53.3178698,43 50.007019,43 L5.99298096,43 C2.68314897,43 0,40.3235601 0,36.9946773 L0,13.0053227 C0,9.68867454 2.6816994,7 5.99306515,7 Z" id="Rectangle-106"></path>
            <path d="M40,25 C40,18.372583 34.627417,13 28,13 C21.372583,13 16,18.372583 16,25 C16,31.627417 21.372583,37 28,37 C34.627417,37 40,31.627417 40,25 Z M18,25 C18,19.4771525 22.4771525,15 28,15 C33.5228475,15 38,19.4771525 38,25 C38,30.5228475 33.5228475,35 28,35 C22.4771525,35 18,30.5228475 18,25 Z" id="Oval-61"></path>
            <circle id="Oval-62" cx="45" cy="13" r="2"></circle>
            <rect id="Rectangle-107" x="5" y="3" width="6" height="2" rx="1"></rect>
        </g>
    </g>
</svg>

<svg width="50" height="50" xmlns="http://www.w3.org/2000/svg"><g transform="translate(-3 3)" fill-rule="evenodd"><path d="M2 36.995A3.991 3.991 0 0 0 5.993 41h44.014A3.999 3.999 0 0 0 54 36.995v-23.99A3.991 3.991 0 0 0 50.007 9h-7.015c-1.745 0-3.764-1.04-4.78-2.461l-2.68-3.753C35.265 2.412 34.463 2 34.006 2H21.994c-.454 0-1.262.415-1.526.786l-2.68 3.753C16.768 7.964 14.755 9 13.007 9H5.993A3.998 3.998 0 0 0 2 13.005v23.99zM5.993 7h7.015c1.1 0 2.508-.723 3.152-1.624l2.68-3.752C19.48.727 20.895 0 21.994 0h12.012c1.101 0 2.51.723 3.154 1.624l2.68 3.752C40.48 6.273 41.893 7 42.992 7h7.015A5.991 5.991 0 0 1 56 13.005v23.99C56 40.31 53.318 43 50.007 43H5.993A5.991 5.991 0 0 1 0 36.995v-23.99C0 9.69 2.682 7 5.993 7z"/><path d="M40 25c0-6.627-5.373-12-12-12s-12 5.373-12 12 5.373 12 12 12 12-5.373 12-12zm-22 0c0-5.523 4.477-10 10-10s10 4.477 10 10-4.477 10-10 10-10-4.477-10-10z"/><circle cx="45" cy="13" r="2"/><rect x="5" y="3" width="6" height="2" rx="1"/></g></svg>
